assets/icons/qvision/mic_off.svg

<svg xmlns="http://www.w3.org/2000/svg" height="24" viewBox="0 0 24 24" width="24"><path d="M0 0h24v24H0zm0 0h24v24H0z" fill="none"/><path d="M19 11h-1.7c0 .74-.16 1.43-.43 2.05l1.23 1.23c.56-.98.9-2.09.9-3.28zm-4.02.17c0-.06.02-.11.02-.17V5c0-1.66-1.34-3-3-3S9 3.34 9 5v.18l5.98 5.99zM4.27 3L3 4.27l6.01 6.01V11c0 1.66 1.33 3 2.99 3 .22 0 .44-.03.65-.08l1.66 1.66c-.71.33-1.5.52-2.31.52-2.76 0-5.3-2.1-5.3-5.1H5c0 3.41 2.72 6.23 6 6.72V21h2v-3.28c.91-.13 1.77-.45 2.54-.9L19.73 21 21 19.73 4.27 3z"/></svg>

<svg width="24" height="24" viewBox="0 0 24 24" fill="none" xmlns="http://www.w3.org/2000/svg">
<g clip-path="url(#clip0_147_1510)">
<path d="M19 11H17.3C17.3 11.74 17.14 12.43 16.87 13.05L18.1 14.28C18.66 13.3 19 12.19 19 11ZM14.98 11.17C14.98 11.11 15 11.06 15 11V5C15 3.34 13.66 2 12 2C10.34 2 9 3.34 9 5V5.18L14.98 11.17ZM4.27 3L3 4.27L9.01 10.28V11C9.01 12.66 10.34 14 12 14C12.22 14 12.44 13.97 12.65 13.92L14.31 15.58C13.6 15.91 12.81 16.1 12 16.1C9.24 16.1 6.7 14 6.7 11H5C5 14.41 7.72 17.23 11 17.72V21H13V17.72C13.91 17.59 14.77 17.27 15.54 16.82L19.73 21L21 19.73L4.27 3Z" fill="#323232"/>
</g>
<defs>
<clipPath id="clip0_147_1510">
<rect width="24" height="24" fill="white"/>
</clipPath>
</defs>
</svg>
